X:915
T:West Clare Reel
R:reel
C:Peadar \'O Riada
Z:id:hn-reel-915
M:C|
L:1/8
K:Dm
F2DE FA~A2 | AEGF DCA,F | F2DE FA~A2 | AEGF D3E |
F2DE FA~A2 | AEGF DCA,2 | dcAG FGAB | AGEA D3d ||
dcAG FGAd | dcAG FAEd | dcAG FGAB | AEGF D3d |
dcAG FGAd | dcAG FAE2 | fgef dcAB | AGEA D3E ||

